X:24
T:Berwick Lasses. Le4.024
B:L.Leadley MS#4 c1850
Z:Village Music Project, 2016 Steve Mansfield
M:C|
L:1/8
Q:2/4=75
K:Bm
D2DE D2DE | D2d2 F2ED | E2EF E2EF | EFGA B2d2 |
D2DE D2DE | D2d2 F2ED | G2BG F2AF | EFGA B2d2 :|
|: dcdA dcdA | dcdA F2ED | e2ed e2ed | dfed c2BA |
dcdA dcdA | dcdA F2ED | G2BG F2AF | EFGA B2d2 :|

